outputs/icons/enterprise/receipt_round.svg

<svg xmlns="http://www.w3.org/2000/svg" width="1200" height="1200" fill="none"><path fill="#000" d="M858.445 631.25v28.515c14.995 2.19 26.725 8.645 35.16 19.385 8.43 10.74 12.645 24.67 12.645 41.75h-36.62c0-10.52-2.07-18.425-6.25-23.635-1.98-2.53-4.56-4.55-7.47-5.91-2.915-1.35-6.12-2.02-9.33-1.9-6.92 0-12.16 2.09-16.06 6.15-3.79 4.065-5.715 9.71-5.715 16.895a22.7 22.7 0 0 0 5.565 16.015c3.725 4.02 10.635 8.14 20.705 12.355a219 219 0 0 1 24.9 11.915 70.7 70.7 0 0 1 16.455 12.595 48.9 48.9 0 0 1 10.255 16.065c2.48 6.7 3.7 13.805 3.565 20.95.01 14.915-4.47 27.01-13.43 36.275-8.95 9.265-21.27 14.725-36.96 16.41v26.17h-20.165v-26.025c-17.315-1.915-30.695-8.31-40.185-19.14-9.495-10.835-14.26-25.22-14.26-43.165h36.72c-.015 10.415 2.36 18.415 7.13 23.975 4.775 5.56 11.66 8.35 20.605 8.35 7.42.01 13.28-2.015 17.575-6.105a21.5 21.5 0 0 0 4.935-7.52 21.65 21.65 0 0 0 1.415-8.885c-.025-7.22-1.955-12.97-5.765-17.19-3.81-4.215-10.33-8.125-19.53-11.715-8.16-3.15-16.17-6.745-23.925-10.795-6.25-3.27-12-7.42-17.14-12.255a49.3 49.3 0 0 1-11.13-16.21 56.3 56.3 0 0 1-3.91-22.215c0-14.805 4.56-26.96 13.675-36.425q13.666-14.191 36.325-16.555V631.25zM718.75 850h-250v-62.5h250zM718.75 725h-250v-62.5h250zM906.25 568.75h-437.5v-62.5h437.5zM906.25 443.75h-437.5v-62.5h437.5zM500 256.25c17.26 0 31.25 13.991 31.25 31.25-.015 17.248-14 31.25-31.25 31.25-17.251 0-31.237-14.002-31.25-31.25 0-17.259 13.991-31.25 31.25-31.25M625 256.25c17.26 0 31.25 13.991 31.25 31.25-.015 17.248-14 31.25-31.25 31.25s-31.235-14.002-31.25-31.25c0-17.259 13.99-31.25 31.25-31.25M750 256.25c17.26 0 31.25 13.991 31.25 31.25-.015 17.248-14 31.25-31.25 31.25s-31.235-14.002-31.25-31.25c0-17.259 13.99-31.25 31.25-31.25M875 256.25c17.26 0 31.25 13.991 31.25 31.25-.015 17.248-14 31.25-31.25 31.25s-31.235-14.002-31.25-31.25c0-17.259 13.99-31.25 31.25-31.25"/><path fill="#000" fill-rule="evenodd" d="M875 100c33.15 0 64.935 13.18 88.38 36.621A125 125 0 0 1 1000 225v875l-62.5-62.5L875 1100l-62.5-62.5L750 1100l-62.5-62.5L625 1100l-62.5-62.5L500 1100l-62.5-62.5L375 1100V225H250c0-.141.07-125 125-125zm-468.75 31.25a140.4 140.4 0 0 0-52.929 9.375 93.9 93.9 0 0 1 38.573 34.57A93.95 93.95 0 0 1 406.25 225v799.56l31.25-31.25 62.5 62.5 62.5-62.5 62.5 62.5 62.5-62.5 62.5 62.5 62.5-62.5 62.5 62.5 62.5-62.5 31.25 31.25V225c0-24.864-9.86-48.727-27.44-66.308A93.78 93.78 0 0 0 875 131.25z"/></svg>

<svg width="1200" height="1200" viewBox="0 0 1200 1200" fill="none" xmlns="http://www.w3.org/2000/svg"><path fill-rule="evenodd" d="M375 100H875C908.155 100 939.945 113.169 963.39 136.612C986.83 160.054 1000 191.848 1000 225V1100L937.5 1037.5L875 1100L812.5 1037.5L750 1100L687.5 1037.5L625 1100L562.5 1037.5L500 1100L437.5 1037.5L375 1100V225H250C250 225 250 100 375 100ZM937.5 993.3L968.75 1024.55V225C968.75 200.136 958.875 176.29 941.29 158.708C923.71 141.126 899.865 131.25 875 131.25H406.25C388.174 130.937 370.208 134.12 353.341 140.624C369.187 148.309 382.552 160.296 391.908 175.216C401.264 190.136 406.234 207.389 406.25 225V1024.55L437.5 993.3L500 1055.8L562.5 993.3L625 1055.8L687.5 993.3L750 1055.8L812.5 993.3L875 1055.8L937.5 993.3ZM531.25 287.476C531.25 304.735 517.26 318.726 500 318.726C482.741 318.726 468.75 304.735 468.75 287.476C468.75 270.216 482.741 256.226 500 256.226C517.26 256.226 531.25 270.216 531.25 287.476ZM625 318.726C642.26 318.726 656.25 304.735 656.25 287.476C656.25 270.216 642.26 256.226 625 256.226C607.74 256.226 593.75 270.216 593.75 287.476C593.75 304.735 607.74 318.726 625 318.726ZM781.25 287.476C781.25 304.735 767.26 318.726 750 318.726C732.74 318.726 718.75 304.735 718.75 287.476C718.75 270.216 732.74 256.226 750 256.226C767.26 256.226 781.25 270.216 781.25 287.476ZM875 318.726C892.26 318.726 906.25 304.735 906.25 287.476C906.25 270.216 892.26 256.226 875 256.226C857.74 256.226 843.75 270.216 843.75 287.476C843.75 304.735 857.74 318.726 875 318.726ZM468.75 381.226H906.25V443.726H468.75V381.226ZM906.25 506.225H468.75V568.725H906.25V506.225ZM468.75 662.475H718.75V724.975H468.75V662.475ZM718.75 787.475H468.75V849.975H718.75V787.475ZM846.6 689.475C839.67 689.475 834.415 691.525 830.51 695.585C826.72 699.65 824.825 705.295 824.825 712.48C824.53 718.345 826.53 724.095 830.39 728.515C834.115 732.54 841.015 736.66 851.095 740.88C859.63 744.315 867.94 748.29 875.975 752.775C882.055 756.15 887.6 760.4 892.44 765.39C896.88 770.01 900.365 775.46 902.695 781.425C905.18 788.13 906.385 795.235 906.25 802.385C906.265 817.305 901.79 829.4 892.83 838.67C883.875 847.945 871.545 853.42 855.84 855.1V881.25H835.705V855.215C818.385 853.3 804.98 846.93 795.49 836.095C785.995 825.26 781.25 810.875 781.25 792.93H817.97C817.955 803.36 820.34 811.355 825.12 816.915C829.895 822.475 836.76 825.255 845.705 825.255C853.125 825.265 858.985 823.23 863.28 819.14C865.435 817.005 867.115 814.435 868.205 811.605C869.295 808.775 869.775 805.745 869.61 802.715C869.585 795.49 867.665 789.765 863.85 785.545C860.035 781.33 853.52 777.42 844.315 773.83C836.155 770.68 828.18 767.075 820.43 763.03C814.175 759.755 808.4 755.64 803.26 750.8C798.5 746.195 794.71 740.675 792.13 734.57C789.34 727.5 788.01 719.94 788.225 712.345C788.225 697.54 792.78 685.405 801.895 675.94C811.01 666.47 823.125 660.95 838.245 659.375V631.25H858.44V659.745C873.44 661.935 885.155 668.4 893.595 679.14C902.03 689.885 906.25 703.795 906.25 720.88H869.65C869.65 710.36 867.56 702.495 863.38 697.285C861.4 694.75 858.85 692.72 855.93 691.36C853.015 690 849.815 689.355 846.6 689.475Z" fill="#1D1E23"/></svg>
